icons/Close-Regular.svg

<svg width="24" height="24" viewBox="0 0 24 24" fill="none" xmlns="http://www.w3.org/2000/svg">
<path fill-rule="evenodd" clip-rule="evenodd" d="M14.811 11.972L20.811 5.972C20.8588 5.92711 20.897 5.87289 20.923 5.81269C20.9491 5.7525 20.9625 5.6876 20.9625 5.622C20.9625 5.5564 20.9491 5.4915 20.923 5.4313C20.897 5.37111 20.8588 5.31689 20.811 5.272L18.701 3.152C18.6561 3.10417 18.6019 3.06605 18.5417 3.03999C18.4815 3.01393 18.4166 3.00048 18.351 3.00048C18.2854 3.00048 18.2205 3.01393 18.1603 3.03999C18.1001 3.06605 18.0459 3.10417 18.001 3.152L12.001 9.152L6.001 3.152C5.95611 3.10417 5.90189 3.06605 5.84169 3.03999C5.7815 3.01393 5.7166 3.00048 5.651 3.00048C5.5854 3.00048 5.5205 3.01393 5.46031 3.03999C5.40011 3.06605 5.34589 3.10417 5.301 3.152L3.151 5.272C3.10317 5.31689 3.06505 5.37111 3.03899 5.4313C3.01293 5.4915 2.99948 5.5564 2.99948 5.622C2.99948 5.6876 3.01293 5.7525 3.03899 5.81269C3.06505 5.87289 3.10317 5.92711 3.151 5.972L9.151 11.972L3.151 17.972C3.10317 18.0169 3.06505 18.0711 3.03899 18.1313C3.01293 18.1915 2.99948 18.2564 2.99948 18.322C2.99948 18.3876 3.01293 18.4525 3.03899 18.5127C3.06505 18.5729 3.10317 18.6271 3.151 18.672L5.271 20.792C5.31589 20.8398 5.37011 20.878 5.43031 20.904C5.4905 20.9301 5.5554 20.9435 5.621 20.9435C5.6866 20.9435 5.7515 20.9301 5.81169 20.904C5.87189 20.878 5.92611 20.8398 5.971 20.792L11.971 14.792L17.971 20.792C18.0159 20.8398 18.0701 20.878 18.1303 20.904C18.1905 20.9301 18.2554 20.9435 18.321 20.9435C18.3866 20.9435 18.4515 20.9301 18.5117 20.904C18.5719 20.878 18.6261 20.8398 18.671 20.792L20.791 18.672C20.8388 18.6271 20.877 18.5729 20.903 18.5127C20.9291 18.4525 20.9425 18.3876 20.9425 18.322C20.9425 18.2564 20.9291 18.1915 20.903 18.1313C20.877 18.0711 20.8388 18.0169 20.791 17.972L14.811 11.972Z" fill="black"/>
</svg>

<svg xmlns="http://www.w3.org/2000/svg" viewBox="0 0 24 24">
  <path d="M14.811 11.972l6-6a.48.48 0 000-.7l-2.11-2.12a.48.48 0 00-.7 0l-6 6-6-6a.48.48 0 00-.7 0l-2.15 2.12a.48.48 0 000 .7l6 6-6 6a.48.48 0 000 .7l2.12 2.12a.48.48 0 00.7 0l6-6 6 6a.48.48 0 00.7 0l2.12-2.12a.48.48 0 000-.7l-5.98-6z"/>
</svg>
